symbols/web/hourglass_empty/materialsymbolsrounded/hourglass_empty_wght600gradN25_20px.svg

<svg xmlns="http://www.w3.org/2000/svg" height="20" width="20"><path d="M6.938 16.333h6.124v-2.271q0-1.312-.874-2.229-.876-.916-2.188-.916-1.312 0-2.188.916-.874.917-.874 2.229ZM10 9.083q1.312 0 2.188-.916.874-.917.874-2.209V3.667H6.938v2.291q0 1.313.874 2.219.876.906 2.188.906Zm5.792 9.438H4.208q-.416 0-.75-.333-.333-.334-.333-.75 0-.438.333-.771.334-.334.75-.334h.542v-2.271q0-1.187.49-2.25Q5.729 10.75 6.625 10q-.896-.75-1.385-1.812-.49-1.063-.49-2.23V3.667h-.542q-.416 0-.75-.334-.333-.333-.333-.771 0-.416.333-.749.334-.334.75-.334h11.584q.416 0 .75.334.333.333.333.749 0 .438-.333.771-.334.334-.75.334h-.542v2.291q0 1.167-.479 2.23Q14.292 9.25 13.375 10q.917.75 1.396 1.812.479 1.063.479 2.25v2.271h.542q.416 0 .75.334.333.333.333.771 0 .416-.333.75-.334.333-.75.333Z"/></svg>

<svg xmlns="http://www.w3.org/2000/svg" height="20" width="20"><path d="M6.938 16.333H13.062V14.062Q13.062 12.75 12.188 11.833Q11.312 10.917 10 10.917Q8.688 10.917 7.812 11.833Q6.938 12.75 6.938 14.062ZM10 9.083Q11.312 9.083 12.188 8.167Q13.062 7.25 13.062 5.958V3.667H6.938V5.958Q6.938 7.271 7.812 8.177Q8.688 9.083 10 9.083ZM15.792 18.521H4.208Q3.792 18.521 3.458 18.188Q3.125 17.854 3.125 17.438Q3.125 17 3.458 16.667Q3.792 16.333 4.208 16.333H4.75V14.062Q4.75 12.875 5.24 11.812Q5.729 10.75 6.625 10Q5.729 9.25 5.24 8.188Q4.75 7.125 4.75 5.958V3.667H4.208Q3.792 3.667 3.458 3.333Q3.125 3 3.125 2.562Q3.125 2.146 3.458 1.813Q3.792 1.479 4.208 1.479H15.792Q16.208 1.479 16.542 1.813Q16.875 2.146 16.875 2.562Q16.875 3 16.542 3.333Q16.208 3.667 15.792 3.667H15.25V5.958Q15.25 7.125 14.771 8.188Q14.292 9.25 13.375 10Q14.292 10.75 14.771 11.812Q15.25 12.875 15.25 14.062V16.333H15.792Q16.208 16.333 16.542 16.667Q16.875 17 16.875 17.438Q16.875 17.854 16.542 18.188Q16.208 18.521 15.792 18.521Z"/></svg>
